X:1
T:Title
%%score { ( 1 3 ) | 2 }
L:1/8
M:4/4
K:F
V:1 treble nm="Grand Piano"
V:3 treble 
V:2 bass 
V:1
 z4 z2[Q:1/4=100] [DF]>[^CE] | [DF]2 [DG]2 [DA]2 c>B | [_EB]2 [EA]2 z2 F>G | A2 F2 A2 [G_e]2 | %4
 [Fd]6 [DF]>[^CE] | [DF]2 [DG]2 [DA]2 c>B | [FB]2 [FA]2 z2 [FA]>[FB] | [Ec]2 [EG]2 [EA]2 [EB]2 | %8
[M:3/4] c6 |[M:1/4] c>d |[M:4/4] _e2 G2 A2 [Ge]2 | [Fd]>[E^c] [Fd]4 B>=c | d2 A2 B2 G2 | %13
 [^Fd]6 [Fd]>[Fd] | d2 G2 _e2 d2 | [Gf]2 [G_e]2 [GB]2 [Gc]2 | d2 F2 G2 A2 |[M:3/4] [DB]6 |] %18
V:2
 z4 z2 [B,,B,]>[B,,B,] | [B,,B,]2 [B,,B,]2 [B,,F,]2 [B,,F,]2 | %2
 [C,F,]2 [C,F,]2 z2 [F,A,_E]>[F,B,E] | [F,C_E]2 [F,A,E]2 [F,CE]2 [F,A,]2 | %4
 [B,,B,]6 [B,,B,]>[B,,B,] | [B,,B,]2 [B,,B,]2 [B,,F,]2 [B,,F,]2 | [C,C]2 [C,C]2 z2 [C,C]>[C,C] | %7
 [C,G,]2 [C,B,]2 [C,A,]2 [C,G,]2 |[M:3/4] [F,A,_E]6 |[M:1/4] [F,A,F]>[F,B,F] | %10
[M:4/4] [F,CF]2 [F,B,_E]2 [F,CE]2 [F,A,]2 | [B,,B,]2 [B,,B,]4 B,>C | D2 A,2 B,2 G,2 | %13
 [D,A,]6 [D,C]>[D,C] | [G,=B,F]2 [G,B,F]2 [G,B,F]2 [G,B,F]2 | [C,C]2 [C,C]2 [E,^C]2 [E,=C]2 | %16
 [F,B,F]2 [F,B,D]2 [F,C_E]2 [F,CE]2 |[M:3/4] [B,,B,]6 |] %18
V:3
 x8 | z4 z2 D2 | x8 | x8 | x8 | z4 z2 D2 | x8 | x8 |[M:3/4] x6 |[M:1/4] x2 |[M:4/4] x8 | x8 | x8 | %13
 x8 | x8 | x8 | x8 |[M:3/4] x6 |] %18

